X: 40370
T: Tom Fitzmorris'
R: reel
M: 4/4
K: Gmajor
|:G2DG EGDE|GABG AE~E2|gfed eage|1 dB~B2 c2BA:|2 dBAc BG~G2||
g2dg egde|gabg agef|g2dg edB2|cBAc BGBd|
g2dg egde|ga (3bag agef|g2dg efge|dB~B2 c2BA||

